!!!COM: Zenaro, Giulio
!!!CDT: <1588-1590
!!!OTL: Queste note son nove, e queste Amore
!!!rime: 1049
!!!PTL: Il primo libro de madrigali a tre voci
!!!PPP: Venice
!!!PPR: Vincenzi & Amadino
!!!PDT: 1589
!!!PUB-format:
!!!AGN: Madrigal
!!!SCT: Trm1049a
!!!SCA: Trm1049a
!!!original-voices: 3
!!!extant-voices: 3
!!!complete: Y
!!!final: G
**kern	**text	**kern	**text	**kern	**text
*part3	*part3	*part2	*part2	*part1	*part1
*staff3	*staff3	*staff2	*staff2	*staff1	*staff1
*Ivox	*	*Ivox	*	*Ivox	*
*I"Basso	*	*I"Tenore	*	*I"Canto	*
*I'B	*	*I'T	*	*I'C	*
*oclefC3	*	*oclefC2	*	*oclefG2	*
*clefGv2	*	*clefG2	*	*clefG2	*
*k[b-]	*	*k[b-]	*	*k[b-]	*
*omet(C)	*	*omet(C)	*	*omet(C)	*
*M4/2	*	*M4/2	*	*M4/2	*
=1	=1	=1	=1	=1	=1
4r	.	4r	.	4r	.
4.d	Que-	4.f	Que-	4.a	Que-
8d	-ste	8f	-ste	8a	-ste
4d	no-	4f	no-	4a	no-
4c	-te	4e	-te	4a	-te
4B-	son	4d	son	4g	son
2A	no-	2c#X	no-	2a	no-
=2	=2	=2	=2	=2	=2
2A	-ve,	2c#i	-ve,	2e	-ve,
4r	.	4r	.	4r	.
4F#X	e	4d	e	4a	e
4G	que-	4d	que-	4b-	que-
4B-	-st'A-	4d	-st'A-	4g	-st'A-
2A	-mo-	8cniL	-mo-	2a	-mo-
.	.	8d	.	.	.
.	.	8e	.	.	.
.	.	8fJ	.	.	.
=3	=3	=3	=3	=3	=3
1G	-re	4g	.	1bn	-re
.	.	4d	-re	.	.
.	.	4r	.	.	.
.	.	4g	Co-	.	.
2r	.	4b-	-min-	4r	.
.	.	4g	-tia in	4dd	Co-
4r	.	4a	no-	4ff	-min-
4g	Co-	4bn	-vi	4dd	-tia in
=4	=4	=4	=4	=4	=4
4c	-min-	1cc	mo-	4ee	no-
4d	-tia in	.	.	4ff#X	-vi
4e	no-	.	.	2gg	mo-
4f#X	-vi	.	.	.	.
2g	mo-	2b-i	-di,	4dd	-di,
.	.	.	.	4dd	<Co-
2g	-di:	4r	.	4ee-	-min-
.	.	4g	<Co-	4b-	-tia in
=5	=5	=5	=5	=5	=5
1r	.	4a	-min-	4ccni	no-
.	.	4f	-tia in	2dd	-vi
.	.	4g	no-	.	.
.	.	4a	-vi	4cc#X	mo-
4r	.	4.b-	mo-	2.dd	-di:>
4.G	Que-	.	.	.	.
.	.	8a	.	.	.
.	.	4g	.	.	.
8G	-ste	.	.	.	.
4d	no-	4f	-di:>	[4a	Que-
=6	=6	=6	=6	=6	=6
4c#X	-te	4r	.	8a]	.
.	.	.	.	8a	-ste
4d	son	4.f	Que-	4a	no-
4.B-	no-	.	.	4b-	-te
.	.	8f	-ste	.	.
.	.	4d	no-	4g	son
16AL	.	.	.	.	.
16GJ	.	.	.	.	.
8FL	.	4d	-te	8aL	no-
8G	.	.	.	8b-	.
8A	.	4c	son	8cc	.
8FJ	.	.	.	8aJ	.
2G	.	2g	no-	2b-	.
=7	=7	=7	=7	=7	=7
4d	-di	4f	-di	4a	-di
4.d	Che	4.a	Che	4.f	Che
8d	mi	8a	mi	8f	mi
4d	fa	4a	fa	4ff	fa
4f	la	4a	la	4dd	la
4e	mia	4g	mia	4ee	mia
[2d	don-	4.a	don-	2ff	don-
.	.	8g	.	.	.
=8	=8	=8	=8	=8	=8
4d]	.	4f	.	2dd	-na
4g	-na in-	4b-	-na in-	.	.
4f#X	-tor-	4a	-tor-	4r	.
4g	-n'al	4g	-n'al	4b-	in-
1d	co-	4f#X	co-	4a	-tor-
.	.	2g	.	4b-	-n'al
.	.	.	.	2a	co-
.	.	4f#X	.	.	.
=9	=9	=9	=9	=9	=9
4G	-re,	2g	-re,	4g	-re,
4c	in-	.	.	4ee-	<in-
4B-	-tor-	4r	.	4dd	-tor-
4e-	-n'al	4g	in-	4cc	-n'al
2d	co-	4b-	-tor-	2dd	co-
.	.	4a	-n'al	.	.
2G	-re,	2b-	co-	2dd	-re,>
=10	=10	=10	=10	=10	=10
4r	.	4g	-re,	4r	.
4.e-	Que-	4.g	Que-	4.b-	Que-
8e-i	-ste	8g	-ste	8b-	-ste
4e-i	no-	4g	no-	4b-	no-
4e-i	-te	4g	-te	4b-	-te
4c	son	8gL	son	4ee-	son
.	.	8aJ	.	.	.
8B-L	no-	4b-	.	2dd	no-
8c	.	.	.	.	.
8d	.	8fL	no-	.	.
16c	.	8gJ	.	.	.
16B-J	.	.	.	.	.
=11	=11	=11	=11	=11	=11
8AL	.	8aL	.	2cc	-di
8B-	.	16g	.	.	.
.	.	16f	.	.	.
8A	.	8e	.	.	.
16G	.	8fJ	.	.	.
16FJ	.	.	.	.	.
8GL	.	8gL	.	4r	.
8A	.	16f	.	.	.
.	.	16e	.	.	.
8B-	.	8d	.	4dd	son
8cJ	.	8eJ	.	.	.
4.d	.	4.f	.	8ddL	no-
.	.	.	.	8ee	.
.	.	.	.	8ff	.
16cL	.	8g	.	16ee	.
16B-J	.	.	.	16ddJ	.
2c	.	4a	.	8ccL	.
.	.	.	.	8ddJ	.
.	.	4g	-di	4ee-	.
=12	=12	=12	=12	=12	=12
2G	-di	4r	.	2dd	-di
.	.	8b-	Che	.	.
.	.	8a	mi	.	.
4r	.	1g	fa	4r	.
8G	Che	.	.	8b-	Che
8A	mi	.	.	8cc	mi
2B-	fa	.	.	2dd	fa
4A	la	4a	la	4cc	la
4G	mia	4b-	mia	4dd	mia
=13	=13	=13	=13	=13	=13
4c	don-	4.cc	don-	4.ee-	don-
4c	-na in-	.	.	.	.
.	.	8a	-na in-	16ddL	.
.	.	.	.	16ccJ	.
4B-	-tor-	4b-	-tor-	4dd	.
4e-	-n'al	4g	-n'al	4cc	-na in-
1d	co-	4f#X	co-	4dd	-tor-
.	.	2g	.	4b-	-n'al
.	.	.	.	2a	co-
.	.	4f#X	.	.	.
=14	=14	=14	=14	=14	=14
2G	-re,	2g	-re,	2bn	-re,
4r	.	4r	.	4r	.
8Bn	E	8g	E	8dd	E
8c	li	8g	li	8ee	li
4d	strin-	2fni	strin-	4ff	strin-
2B-i	-ge il	.	.	2dd	-ge il
.	.	4d	-ge il	.	.
4A	pia-	4e	pia-	4cc#X	pia-
=15	=15	=15	=15	=15	=15
2d	-cer	2f	-cer	4dd	-cer
.	.	.	.	4dd	e
4r	.	4r	.	4ee	la
4d	e	4a	e	4ff#X	spe-
4e	la	4g	la	2gg	-ran-
4f#X	spe-	4a	spe-	.	.
2g	-ran-	4.b-	-ran-	2dd	-za,
.	.	16aL	.	.	.
.	.	16gJ	.	.	.
=16	=16	=16	=16	=16	=16
4d	-za,	4a	.	4r	.
4d	e	4bn	.	4dd	e
4c	la	2cc	.	4ee	la
4d	spe-	.	.	4ff#X	spe-
2e-	-ran-	4b-i	-za,	2gg	-ran-
.	.	4g	e	.	.
4d	-za,	4a	la	4ffni	-za,
4G	e	4bn	spe-	4dd	e
=17	=17	=17	=17	=17	=17
4A	la	2cc	-ran-	4cc	la
4Bn	spe-	.	.	4dd	spe-
2c	-ran-	4.g	.	2ee-	-ran-
.	.	8a	.	.	.
2G	-za,	2b-i	-za,	1dd	-za,
2g	Tal	4r	.	.	.
.	.	[4b-	Tal	.	.
=18	=18	=18	=18	=18	=18
2d	che	4b-]	.	2ff	Tal
.	.	2a	che	.	.
2c	de	.	.	2ee	che
.	.	2g	de	.	.
2B-	li-	.	.	2dd	de
.	.	2f	li-	.	.
2c	-ber-	.	.	4cc	li-
.	.	4e-	-ber-	4g	-ber-
=19	=19	=19	=19	=19	=19
4G	-t&agrave;	4d	-t&agrave;	4b-	-t&agrave;
4.G	nul-	2b-	nul-	4.dd	nul-
8G	-la	.	.	8dd	-la
4c	mi a-	2g	-la	4ee-	mi a-
1d	-van-	.	.	2dd	-van-
.	.	8f#X	mi a-	.	.
.	.	8e	-van-	.	.
.	.	2f#i	.	2a	.
=20	=20	=20	=20	=20	=20
0Gl	-za.	0gl	-za.	0bnl	-za.
==	==	==	==	==	==
*-	*-	*-	*-	*-	*-
!!!system-decoration: [*]
!!!RDF**kern: i = editorial accidental
!!!RDF**kern: l = terminal long
!!!ENC: Emiliano Ricciardi
!!!END: 2013
!!!EED: Ricciardi, Emiliano
!!!EEV: 2016/01/08
!!!YEC: Copyright 2016 Emiliano Ricciardi, All Rights Reserved
!!!ONB: Translated from MusicXML on 2015/12/28 and edited by Craig Stuart Sapp
!!@@BEGIN:	VERSEDATA
!!@SOLERTI:	1049
!!@CATALOGNUM:	Trm1049
!!@LAST_MODIFIED: 2020/07/12
!!@TITLE:		Queste note son nove, e queste Amore
!!@GENRE:		madrigale
!!@MANUSRC:	E<sub>2</sub>
!!@PRINTSRC:	28, 141, 166, 169
!!@@BEGIN:	VERSES
!!@ABOUTIT:	Ne la dedicazione d'una scelta di madrigali in musica a la signora donna Marfisa d'Este, a istanza d'un gentiluomo suo amico.
!!@ABOUTEN:	On the dedication of a selection of madrigali set to music to lady Marfisa d'Este, on behalf of a gentleman friend of hers.
!!@EDITOR:	Solerti, Angelo
!!@EDITION_TITLE: Le Rime di Torquato Tasso
!!@EDITION_LOC:	Bologna
!!@EDITION_PUB:	Romagnoli-Dall’Acqua
!!@EDITION_DATE:  1898-1902
!!@EDITION_VOL:	4
!!@EDITION_PAGE:  89
!!@TRANSLATOR:	Emiliano Ricciardi and Amyrose McCue Gill
!!@VERSE:
!!	Queste note son nove, e queste Amore
!!	Comincia in novi modi:
!!	Queste note son nodi
!!	Che mi fa la mia donna intorno al core,
!!	Anzi ella insieme ed io
!!	Facciam soavi lacci a 'l desir mio;
!!	E li stringe il piacere e la speranza,
!!	Tal che di libertà nulla m'avanza.
!!@TVERSE:
!!	These notes are new, and these Love
!!	Begins in new modes:
!!	These notes are knots
!!	That my lady ties around my heart,
!!	Or rather she together with me
!!	We make snares pleasing to my desire;
!!	And pleasure and hope binds them
!!	Such that no freedom is left me.
!!@@END:		VERSES
!!@OTHER_CRIT_ED:   None
!!@ATTRIBUTION_ABOUT:	Secure
!!	<br>
!!	Among other sources, this sonnet appears in the authoritative manuscript It. 379a, Biblioteca Estense Universitaria, Modena, Italy (see Literary Sources).
!!@DATING:	Mid-1580s?
!!@DEDICATEE:	d'Este, Marfisa
!!@COMMENTARY:
!!@@END:		VERSEDATA
!!@@BEGIN:	SETTING
!!@CATALOGNUM:	Trm1049a
!!@RIMETITLE:	Queste note son nove, e queste Amore
!!@SOLERTI:	1049
!!@COMPOSER:	Zenaro, Giulio
!!@PRINCEPSTITLE:	Il primo libro de madrigali a tre voci
!!@PRINCEPSLOC:	Venetia
!!@NORMLOC:	Venice
!!@NORMPUB:	Vincenzi & Amadino
!!@NORMPUBSHORT:	Vincenzi & Amadino
!!@PRINCEPSPUB:	Vincenzi
!!@PRINCEPSYEAR:	1589
!!@PRINCEPSRISM:	Z 160
!!@REPRINTS:	
!!@OVOICES:	3
!!@EXTANTVOICES:	3
!!@PARTBOOKS:	
!!@EXTPARTBOOKS:	
!!@OCLEFS:	G2,C2,C3
!!@OMENSURATION:	C
!!@OKEYSIG:	b-
!!@FINAL:	G
!!@TIMPEDITOR:	Ricciardi, Emiliano
!!@NOTE:		
!!@@END:		SETTING
